icons/toukei.svg

<?xml version="1.0" standalone="no"?>
<svg width="105" height="108" viewBox="0 0 105 108" xmlns="http://www.w3.org/2000/svg" xmlns:xlink="http://www.w3.org/1999/xlink" version="1.1"><!--?xml version="1.0" encoding="utf-8"?-->
<!-- Generator: Adobe Illustrator 15.0.2, SVG Export Plug-In . SVG Version: 6.00 Build 0)  -->

<svg version="1.1" id="Ebene_1" xmlns="http://www.w3.org/2000/svg" xmlns:xlink="http://www.w3.org/1999/xlink" x="0px" y="0px" width="100px" height="100px" viewBox="0 0 100 100" enable-background="new 0 0 100 100" xml:space="preserve">
<circle fill="#B2B2B2" cx="50" cy="50" r="50"></circle></svg><g><path d="M 16.954235640600956 35 C 16.361680136551545 33.75496045157955 16.065835876111763 33.83994726877274 15.213705343017871 35.5 C 14.649058468390997 36.6 12.783374998878386 41.1 11.06774207743429 45.5 C 9.352109155990195 49.9 8.072517357067623 53.60990026690469 8.22420474649524 53.74422281534375 C 8.375892135922857 53.878545363782806 9.359828654397845 51.85354536378281 10.410730343106323 49.24422281534375 C 11.4616320318148 46.63490026690469 13.17817743000478 42.475 14.22527567241739 40 L 16.129090658622136 35.5 L 19.628303521272173 43.5 C 21.55287059572969 47.9 23.80564767345673 53.075 24.634474805110038 55 L 26.14143322629787 58.5 L 28.526021750492433 55.5 C 29.837545438799438 53.85 31.089357242489378 52.725 31.30782575869229 53 C 31.526294274895207 53.275 32.10890696309063 54.28972772257624 32.602520621348795 55.254950494613865 C 33.38537528129637 56.78576134705988 34.52174798824588 56.14560685060368 41.5 50.242720443207816 C 45.9 46.520771142896855 50.0625 43.14354342032061 50.75 42.73776994859394 C 51.57925664953132 42.24832944003722 52 42.673189360749895 52 44 C 52 45.1 51.6625 45.793129061674385 51.25 45.540286803720846 C 50.8375 45.287444545767315 49.42205688877176 45.849944545767315 48.10457086393725 46.790286803720846 C 46.03163637217279 48.26982272579667 45.79354439099184 49.038516693219094 46.33606872330569 52.5 C 46.74175760252077 55.088428204059426 46.52840880747546 56.963599535712746 45.73149785936844 57.81371152936315 C 45.0541740367158 58.536252870512875 44.18093370653006 61.911252870512875 43.790963792289034 65.31371152936315 C 43.400993878048 68.71617018821341 43.288493878047994 72.9625 43.540963792289034 74.75 C 43.8991750691009 77.28615429476444 44.604023289045465 78.1518104151016 46.75 78.69116315397228 C 48.2625 79.07130288865704 51.222108009429896 79.40880288865704 53.326906687621985 79.44116315397228 L 57.15381337524397 79.5 L 56.826906687621985 82.74440867544413 L 56.5 85.98881735088825 L 73.75 85.99440867544413 L 91 86 L 90.54786335495987 80.75 C 90.29918820018781 77.8625 90.07418820018782 74.4875 90.04786335495987 73.25 C 90.011036516063 71.51881363440924 88.61649697490869 70.30824848745434 84 68 L 78 65 L 77.02685793120862 68.75 C 76.49162979337336 70.8125 75.71324567472834 74.075 75.29711544533077 76 L 74.5405150282443 79.5 L 73.92643209273366 74 C 73.5448900135923 70.58273937618452 73.72655884373165 68.00978928688322 74.40617457861151 67.20547464893012 C 75.22654063567497 66.23458419670621 75.12499587368626 65.92043343855967 74 65.94888544322745 C 73.09187958713461 65.97185250188971 73.50403258105155 65.29889541450484 75.04451902771027 64.24341079429733 C 76.47545622966008 63.26298528492873 77.46014491961485 61.734131018924074 77.29451902771027 60.75 C 77.13253356246962 59.7875 77.63689866483051 57.9875 78.41533036629002 56.75 C 79.19376206774953 55.5125 79.65827194747814 53.375 79.4475745434647 52 C 79.23687713945125 50.625 78.93747847462075 48.73689966112258 78.78224417717468 47.80422146916129 C 78.6270098797286 46.871543277200004 77.6 45.42335479454171 76.5 44.58602484103176 C 75.4 43.74869488752181 73.4875 43.049295226399224 72.25 43.03180337187047 C 71.0125 43.01431151734171 68.875 44.125 67.5 45.5 C 65.4293344095808 47.5706655904192 65.07123880103529 48.72986849628736 65.4148211711289 52.25 C 65.6429728152498 54.5875 66.34108112904234 57.85 66.96617297955675 59.5 C 67.59126483007117 61.15 69.09209530306316 63.277493869485035 70.30135180842785 64.22776415441119 C 71.51060831379253 65.17803443933734 71.9375 65.96553443933735 71.25 65.97776415441119 C 70.50332060952618 65.99104659251593 70.20132824381048 66.80531297524189 70.5 68 C 70.775 69.1 70.55 70.225 70 70.5 C 69.45 70.775 69.02003640798145 69.9875 69.04452535106988 68.75 C 69.06901429415831 67.5125 68.37397788617687 65.825 67.5 65 C 66.37164659643616 63.93487973475821 65.9238580797691 63.86239977896518 65.95547464893012 64.75 C 65.98591077891432 65.60446069634668 64.5993463895717 65.92089213926934 61.573595349781144 65.75 C 58.137300191469336 65.55592063820114 56.627442960038366 65.99858725879031 54.823595349781144 67.72899485247689 C 53.545617907401514 68.95494202133916 52.1625 69.96744202133917 51.75 69.97899485247689 C 51.3375 69.9905476836146 51.292714300943224 69.4375 51.65047622431828 68.75 C 52.00823814769333 68.0625 52.27646226615166 65.025 52.24652982089235 62 C 52.211650132396045 58.475027122333856 52.93057801284104 54.88406871809048 54.24857996882902 52 L 56.30505274450991 47.5 L 54.69870354042405 46.5 C 53.815211478176835 45.95 52.9590746106621 44.292055113646434 52.796177168169095 42.815678030325415 C 52.5469772179918 40.557121419638925 52.262082177288306 40.32781066906269 51 41.3699430200435 C 50.175 42.05116584770947 46.8 44.84505236695404 43.5 47.57857972947588 C 40.2 50.3121070919977 36.69778862550063 53.21268784662457 35.71730805666806 54.024314739757784 C 34.12315102336623 55.34393367075383 33.77898175990416 55.28848290560203 32.46301540063796 53.5 L 30.9914146879398 51.5 L 28.745707343969897 54.23346257243868 L 26.5 56.966925144877365 L 22.084067628522135 46.73346257243868 C 19.655304824209306 41.105058157597405 17.346880429644777 35.825 16.954235640600956 35 Z " class="odd" fill="#000000" transform="matrix(1 0 0 1 -4.86 -11.34)"></path></g></svg>

<?xml version="1.0" encoding="UTF-8" standalone="no"?>
<svg
   xmlns:dc="http://purl.org/dc/elements/1.1/"
   xmlns:cc="http://creativecommons.org/ns#"
   xmlns:rdf="http://www.w3.org/1999/02/22-rdf-syntax-ns#"
   xmlns:svg="http://www.w3.org/2000/svg"
   xmlns="http://www.w3.org/2000/svg"
   xmlns:sodipodi="http://sodipodi.sourceforge.net/DTD/sodipodi-0.dtd"
   xmlns:inkscape="http://www.inkscape.org/namespaces/inkscape"
   width="105"
   height="108"
   viewBox="0 0 105 108"
   version="1.1"
   id="svg2"
   inkscape:version="0.91 r13725"
   sodipodi:docname="toukei.svg">
  <metadata
     id="metadata15">
    <rdf:RDF>
      <cc:Work
         rdf:about="">
        <dc:format>image/svg+xml</dc:format>
        <dc:type
           rdf:resource="http://purl.org/dc/dcmitype/StillImage" />
      </cc:Work>
    </rdf:RDF>
  </metadata>
  <defs
     id="defs13" />
  <sodipodi:namedview
     pagecolor="#ffffff"
     bordercolor="#666666"
     borderopacity="1"
     objecttolerance="10"
     gridtolerance="10"
     guidetolerance="10"
     inkscape:pageopacity="0"
     inkscape:pageshadow="2"
     inkscape:window-width="688"
     inkscape:window-height="480"
     id="namedview11"
     showgrid="false"
     inkscape:zoom="2.7570891"
     inkscape:cx="52.5"
     inkscape:cy="54"
     inkscape:window-x="0"
     inkscape:window-y="0"
     inkscape:window-maximized="0"
     inkscape:current-layer="svg2" />
  <!--?xml version="1.0" encoding="utf-8"?-->
  <!-- Generator: Adobe Illustrator 15.0.2, SVG Export Plug-In . SVG Version: 6.00 Build 0)  -->
  <svg
     version="1.1"
     id="Ebene_1"
     x="0px"
     y="0px"
     width="100px"
     height="100px"
     viewBox="0 0 100 100"
     enable-background="new 0 0 100 100"
     xml:space="preserve">
<circle
   fill="#B2B2B2"
   cx="50"
   cy="50"
   r="50"
   id="circle5" /></svg>  <g
     id="g7"
     transform="matrix(0.95618914,0,0,0.94403888,3.0484648,-1.2624637)">
    <path
       d="m 16.954236,35 c -0.592556,-1.24504 -0.8884,-1.160053 -1.740531,0.5 -0.564647,1.1 -2.43033,5.6 -4.145963,10 -1.7156328,4.4 -2.9952246,8.1099 -2.8435373,8.244223 0.1516874,0.134322 1.135624,-1.890678 2.1865253,-4.5 C 11.461632,46.6349 13.178177,42.475 14.225276,40 l 1.903815,-4.5 3.499213,8 c 1.924567,4.4 4.177344,9.575 5.006171,11.5 l 1.506958,3.5 2.384589,-3 c 1.311523,-1.65 2.563335,-2.775 2.781804,-2.5 0.218468,0.275 0.801081,1.289728 1.294695,2.25495 0.782854,1.530811 1.919227,0.890657 8.897479,-5.01223 4.4,-3.721949 8.5625,-7.099177 9.25,-7.50495 C 51.579257,42.248329 52,42.673189 52,44 c 0,1.1 -0.3375,1.793129 -0.75,1.540287 -0.4125,-0.252842 -1.827943,0.309658 -3.145429,1.25 -2.072935,1.479536 -2.311027,2.24823 -1.768502,5.709713 0.405689,2.588428 0.19234,4.4636 -0.604571,5.313712 -0.677324,0.722541 -1.550564,4.097541 -1.940534,7.5 -0.38997,3.402458 -0.50247,7.648788 -0.25,9.436288 0.358211,2.536154 1.063059,3.40181 3.209036,3.941163 1.5125,0.38014 4.472108,0.71764 6.576907,0.75 L 57.153813,79.5 56.826907,82.744409 56.5,85.988817 73.75,85.994409 91,86 90.547863,80.75 c -0.248675,-2.8875 -0.473675,-6.2625 -0.5,-7.5 C 90.011037,71.518814 88.616497,70.308248 84,68 l -6,-3 -0.973142,3.75 C 76.49163,70.8125 75.713246,74.075 75.297115,76 l -0.7566,3.5 L 73.926432,74 C 73.54489,70.582739 73.726559,68.009789 74.406175,67.205475 75.226541,66.234584 75.124996,65.920433 74,65.948885 c -0.90812,0.02297 -0.495967,-0.64999 1.044519,-1.705474 1.430937,-0.980426 2.415626,-2.50928 2.25,-3.493411 -0.161985,-0.9625 0.34238,-2.7625 1.120811,-4 C 79.193762,55.5125 79.658272,53.375 79.447575,52 79.236877,50.625 78.937478,48.7369 78.782244,47.804221 78.62701,46.871543 77.6,45.423355 76.5,44.586025 75.4,43.748695 73.4875,43.049295 72.25,43.031803 71.0125,43.014312 68.875,44.125 67.5,45.5 c -2.070666,2.070666 -2.428761,3.229868 -2.085179,6.75 0.228152,2.3375 0.92626,5.6 1.551352,7.25 0.625092,1.65 2.125922,3.777494 3.335179,4.727764 1.209256,0.95027 1.636148,1.73777 0.948648,1.75 C 70.503321,65.991047 70.201328,66.805313 70.5,68 70.775,69.1 70.55,70.225 70,70.5 69.45,70.775 69.020036,69.9875 69.044525,68.75 69.069014,67.5125 68.373978,65.825 67.5,65 c -1.128353,-1.06512 -1.576142,-1.1376 -1.544525,-0.25 0.03044,0.854461 -1.356129,1.170892 -4.38188,1 -3.436295,-0.194079 -4.946152,0.248587 -6.75,1.978995 -1.277977,1.225947 -2.661095,2.238447 -3.073595,2.25 C 51.3375,69.990548 51.292714,69.4375 51.650476,68.75 52.008238,68.0625 52.276462,65.025 52.24653,62 52.21165,58.475027 52.930578,54.884069 54.24858,52 l 2.056473,-4.5 -1.606349,-1 C 53.815211,45.95 52.959075,44.292055 52.796177,42.815678 52.546977,40.557121 52.262082,40.327811 51,41.369943 c -0.825,0.681223 -4.2,3.475109 -7.5,6.208637 -3.3,2.733527 -6.802211,5.634108 -7.782692,6.445735 C 34.123151,55.343934 33.778982,55.288483 32.463015,53.5 l -1.4716,-2 -2.245708,2.733463 L 26.5,56.966925 22.084068,46.733463 C 19.655305,41.105058 17.34688,35.825 16.954236,35 Z"
       class="odd"
       transform="translate(-4.86,-11.34)"
       id="path9"
       inkscape:connector-curvature="0"
       style="fill:#000000" />
  </g>
</svg>
